X:1
T:Mr. Grant of Kinaird
L:1/8
M:2/2
I:linebreak $
K:Bb
V:1 treble 
V:1
 g | Tf2 dB Tc2 AF | TB2 FD ECCg | Tf2 dB Tc2 AF | BFGE DB,B, :| E | (D/E/F) FB GBFB |$ EBDB cCCE | %8
 (DEF) F B GBFB | DFBF DB,B,E | (D/E/F) FB GBFB | EBDB cCCE |$ DFBd cFBg | fede dBB || %14
